;FLAVOR:Marlin
;TIME:12395
;Filament used: 8.49783m
;Layer height: 0.2
;MINX:56.513
;MINY:56.513
;MINZ:0.2
;MAXX:178.487
;MAXY:178.487
;MAXZ:21.8
;Generated with Cura_SteamEngine 5.2.2
M140 S65
M105
M190 S65
M104 S235
M105
M109 S235
M82 ;absolute extrusion mode
; Ender 3 Custom Start G-code
G92 E0 ; Reset Extruder
G28 ; Home all axes
G1 Z2.0 F3000 ; Move Z Axis up little to prevent scratching of Heat Bed
G1 X0.1 Y20 Z0.3 F5000.0 ; Move to start position
G1 X0.1 Y200.0 Z0.3 F1500.0 E15 ; Draw the first line
G1 X0.4 Y200.0 Z0.3 F5000.0 ; Move to side a little
G1 X0.4 Y20 Z0.3 F1500.0 E30 ; Draw the second line
G92 E0 ; Reset Extruder
G1 Z2.0 F3000 ; Move Z Axis up little to prevent scratching of Heat Bed
G1 X5 Y20 Z0.3 F5000.0 ; Move over to prevent blob squish
G92 E0
G92 E0
G1 F1500 E-2
;LAYER_COUNT:109
;LAYER:0
M107
G0 F6000 X73.814 Y74.937 Z0.2
;TYPE:SKIRT
G1 F1500 E0
G1 F1200 X75.212 Y73.549 E0.06552
G1 X76.544 Y72.304 E0.12616
G1 X77.785 Y71.21 E0.18119
G1 X79.224 Y70.012 E0.24347
G1 X79.5 Y69.791 E0.25523
G1 X81.044 Y68.601 E0.32006
G1 X82.585 Y67.489 E0.38327
G1 X83.91 Y66.59 E0.43652
G1 X85.474 Y65.592 E0.49823
G1 X85.772 Y65.41 E0.50984
G1 X87.409 Y64.448 E0.573
G1 X89.157 Y63.492 E0.63926
G1 X90.538 Y62.79 E0.69079
G1 X92.549 Y61.844 E0.7647
G1 X94.013 Y61.211 E0.81775
G1 X95.805 Y60.496 E0.88193
G1 X97.604 Y59.843 E0.94558
G1 X99.391 Y59.257 E1.00813
G1 X101.279 Y58.704 E1.07356
G1 X103.103 Y58.231 E1.13624
G1 X105.013 Y57.8 E1.20136
G1 X105.35 Y57.73 E1.21281
G1 X107.204 Y57.382 E1.27555
G1 X108.732 Y57.14 E1.32701
G1 X110.652 Y56.893 E1.39139
G1 X112.551 Y56.709 E1.45485
G1 X112.893 Y56.682 E1.46626
G1 X114.798 Y56.567 E1.52973
G1 X116.371 Y56.518 E1.58208
G1 X118.286 Y56.513 E1.64577
G1 X120.203 Y56.567 E1.70956
G1 X122.149 Y56.685 E1.7744
G1 X122.488 Y56.712 E1.78571
G1 X124.359 Y56.894 E1.84823
G1 X126.278 Y57.142 E1.91259
G1 X128.132 Y57.441 E1.97505
G1 X129.989 Y57.8 E2.03796
G1 X131.926 Y58.238 E2.10401
G1 X133.761 Y58.715 E2.16707
G1 X135.627 Y59.263 E2.23176
G1 X137.449 Y59.862 E2.29555
G1 X138.869 Y60.373 E2.34574
G1 X140.667 Y61.079 E2.40999
G1 X140.989 Y61.212 E2.42157
G1 X142.773 Y61.99 E2.48631
G1 X144.533 Y62.825 E2.5511
G1 X146.158 Y63.659 E2.61185
G1 X147.885 Y64.615 E2.6775
G1 X149.545 Y65.603 E2.74175
G1 X151.09 Y66.59 E2.80273
G1 X152.415 Y67.489 E2.85599
G1 X153.965 Y68.608 E2.91957
G1 X155.499 Y69.79 E2.98398
G1 X155.772 Y70.009 E2.99562
G1 X157.216 Y71.21 E3.05809
G1 X158.456 Y72.303 E3.11307
G1 X159.807 Y73.566 E3.17458
G1 X160.063 Y73.814 E3.18644
G1 X161.451 Y75.212 E3.25196
G1 X162.696 Y76.544 E3.3126
G1 X163.79 Y77.785 E3.36762
G1 X164.988 Y79.224 E3.4299
G1 X165.209 Y79.5 E3.44166
G1 X166.399 Y81.044 E3.5065
G1 X167.511 Y82.585 E3.5697
G1 X168.41 Y83.91 E3.62296
G1 X169.408 Y85.474 E3.68467
G1 X169.59 Y85.772 E3.69628
G1 X170.552 Y87.409 E3.75943
G1 X171.508 Y89.157 E3.8257
G1 X172.21 Y90.538 E3.87722
G1 X173.156 Y92.549 E3.95114
G1 X173.789 Y94.013 E4.00419
G1 X174.504 Y95.805 E4.06836
G1 X175.156 Y97.601 E4.13191
G1 X175.743 Y99.393 E4.19463
G1 X175.846 Y99.727 E4.20625
G1 X176.387 Y101.612 E4.27148
G1 X176.769 Y103.103 E4.32267
G1 X177.2 Y105.013 E4.3878
G1 X177.27 Y105.35 E4.39925
G1 X177.618 Y107.204 E4.46199
G1 X177.86 Y108.732 E4.51344
G1 X178.107 Y110.652 E4.57783
G1 X178.291 Y112.551 E4.64128
G1 X178.318 Y112.892 E4.65266
G1 X178.433 Y114.797 E4.71614
G1 X178.482 Y116.371 E4.76851
G1 X178.487 Y118.286 E4.83221
G1 X178.433 Y120.203 E4.89599
G1 X178.315 Y122.149 E4.96084
G1 X178.288 Y122.488 E4.97215
G1 X178.106 Y124.359 E5.03467
G1 X177.908 Y125.93 E5.08733
G1 X177.617 Y127.798 E5.15021
G1 X177.559 Y128.131 E5.16146
G1 X177.2 Y129.992 E5.22449
G1 X176.844 Y131.586 E5.27882
G1 X176.761 Y131.929 E5.29056
G1 X176.285 Y133.76 E5.35348
G1 X175.843 Y135.284 E5.40626
G1 X175.737 Y135.627 E5.4182
G1 X175.138 Y137.449 E5.48199
G1 X174.627 Y138.869 E5.53218
G1 X173.921 Y140.667 E5.59643
G1 X173.154 Y142.454 E5.66111
G1 X172.358 Y144.159 E5.72369
G1 X171.343 Y146.155 E5.79817
G1 X170.385 Y147.886 E5.86397
G1 X169.397 Y149.545 E5.92819
G1 X168.41 Y151.09 E5.98917
G1 X167.511 Y152.415 E6.04243
G1 X166.392 Y153.965 E6.10601
G1 X165.21 Y155.499 E6.17042
G1 X164.991 Y155.772 E6.18206
G1 X163.79 Y157.216 E6.24453
G1 X162.697 Y158.456 E6.29951
G1 X161.434 Y159.807 E6.36102
G1 X161.186 Y160.063 E6.37288
G1 X159.788 Y161.451 E6.4384
G1 X158.456 Y162.696 E6.49904
G1 X157.215 Y163.79 E6.55406
G1 X155.776 Y164.988 E6.61634
G1 X155.5 Y165.209 E6.6281
G1 X153.956 Y166.399 E6.69294
G1 X152.415 Y167.511 E6.75614
G1 X151.09 Y168.41 E6.8094
G1 X149.526 Y169.408 E6.87111
G1 X149.228 Y169.59 E6.88272
G1 X147.591 Y170.552 E6.94587
G1 X145.843 Y171.508 E7.01214
G1 X144.462 Y172.21 E7.06366
G1 X142.451 Y173.156 E7.13758
G1 X140.987 Y173.789 E7.19063
G1 X139.195 Y174.504 E7.2548
G1 X137.396 Y175.157 E7.31846
G1 X135.609 Y175.743 E7.38101
G1 X133.721 Y176.296 E7.44644
G1 X131.897 Y176.769 E7.50911
G1 X129.987 Y177.2 E7.57424
G1 X129.65 Y177.27 E7.58568
G1 X127.796 Y177.618 E7.64843
G1 X126.268 Y177.86 E7.69988
G1 X124.348 Y178.107 E7.76427
G1 X122.449 Y178.291 E7.82772
G1 X122.107 Y178.318 E7.83913
G1 X120.202 Y178.433 E7.90261
G1 X118.629 Y178.482 E7.95495
G1 X116.714 Y178.487 E8.01865
G1 X114.797 Y178.433 E8.08243
G1 X112.851 Y178.315 E8.14727
G1 X112.512 Y178.288 E8.15859
G1 X110.641 Y178.106 E8.22111
G1 X109.07 Y177.908 E8.27377
G1 X107.202 Y177.617 E8.33665
G1 X106.869 Y177.559 E8.3479
G1 X105.008 Y177.2 E8.41093
G1 X103.414 Y176.844 E8.46526
G1 X103.071 Y176.761 E8.47699
G1 X101.24 Y176.285 E8.53992
G1 X99.716 Y175.843 E8.59269
G1 X99.373 Y175.737 E8.60464
G1 X97.551 Y175.138 E8.66843
G1 X96.131 Y174.627 E8.71862
G1 X94.333 Y173.921 E8.78287
G1 X92.546 Y173.154 E8.84755
G1 X90.841 Y172.358 E8.91013
G1 X89.155 Y171.506 E8.97296
G1 X88.842 Y171.341 E8.98473
G1 X87.115 Y170.385 E9.05038
G1 X85.455 Y169.397 E9.11463
G1 X83.91 Y168.41 E9.17561
G1 X82.585 Y167.511 E9.22887
G1 X81.035 Y166.392 E9.29245
G1 X80.759 Y166.185 E9.30393
G1 X79.227 Y164.991 E9.36853
G1 X78.046 Y164.014 E9.41951
G1 X76.544 Y162.697 E9.48595
G1 X75.193 Y161.434 E9.54746
G1 X74.937 Y161.186 E9.55932
G1 X73.549 Y159.788 E9.62484
G1 X72.304 Y158.456 E9.68548
G1 X71.21 Y157.215 E9.7405
G1 X70.012 Y155.776 E9.80278
G1 X69.791 Y155.501 E9.81452
G1 X68.599 Y153.954 E9.87947
G1 X67.49 Y152.417 E9.94251
G1 X66.59 Y151.091 E9.99581
G1 X65.591 Y149.525 E10.05759
G1 X64.612 Y147.878 E10.12132
G1 X63.662 Y146.163 E10.18653
G1 X63.492 Y145.843 E10.19858
G1 X62.79 Y144.462 E10.25011
G1 X61.844 Y142.451 E10.32402
G1 X61.211 Y140.987 E10.37707
G1 X60.496 Y139.195 E10.44124
G1 X59.843 Y137.396 E10.5049
G1 X59.257 Y135.609 E10.56745
G1 X58.704 Y133.721 E10.63288
G1 X58.231 Y131.897 E10.69555
G1 X57.8 Y129.987 E10.76068
G1 X57.73 Y129.65 E10.77213
G1 X57.382 Y127.796 E10.83487
G1 X57.14 Y126.268 E10.88632
G1 X56.893 Y124.348 E10.95071
G1 X56.709 Y122.449 E11.01417
G1 X56.682 Y122.107 E11.02558
G1 X56.567 Y120.202 E11.08905
G1 X56.518 Y118.629 E11.1414
G1 X56.513 Y116.714 E11.20509
G1 X56.567 Y114.797 E11.26887
G1 X56.685 Y112.851 E11.33372
G1 X56.712 Y112.512 E11.34503
G1 X56.894 Y110.641 E11.40755
G1 X57.092 Y109.07 E11.46022
G1 X57.383 Y107.202 E11.5231
G1 X57.441 Y106.869 E11.53434
G1 X57.8 Y105.008 E11.59738
G1 X58.156 Y103.414 E11.6517
G1 X58.239 Y103.071 E11.66344
G1 X58.715 Y101.24 E11.72636
G1 X59.157 Y99.716 E11.77914
G1 X59.263 Y99.373 E11.79108
G1 X59.862 Y97.551 E11.85487
G1 X60.373 Y96.131 E11.90506
G1 X61.079 Y94.333 E11.96931
G1 X61.846 Y92.546 E12.03399
G1 X62.642 Y90.841 E12.09657
G1 X63.657 Y88.845 E12.17105
G1 X64.615 Y87.114 E12.23685
G1 X65.603 Y85.455 E12.30108
G1 X66.59 Y83.91 E12.36205
G1 X67.489 Y82.585 E12.41531
G1 X68.608 Y81.035 E12.47889
G1 X69.79 Y79.501 E12.5433
G1 X70.009 Y79.228 E12.55494
G1 X71.21 Y77.784 E12.61741
G1 X72.303 Y76.544 E12.67239
G1 X73.566 Y75.193 E12.7339
G1 X73.814 Y74.937 E12.74576
G0 F6000 X74.096 Y75.22
G1 F1200 X75.486 Y73.84 E12.8109
G1 X76.808 Y72.605 E12.87107
G1 X78.299 Y71.297 E12.93704
G1 X79.479 Y70.32 E12.988
G1 X81.012 Y69.125 E13.05265
G1 X82.534 Y68.014 E13.11532
G1 X84.135 Y66.921 E13.1798
G1 X85.688 Y65.93 E13.24107
G1 X87.326 Y64.956 E13.30445
G1 X89.027 Y64.014 E13.36912
G1 X89.339 Y63.849 E13.38086
G1 X91.01 Y63.005 E13.44313
G1 X92.708 Y62.212 E13.50546
G1 X94.476 Y61.453 E13.56945
G1 X96.271 Y60.748 E13.63359
G1 X98.049 Y60.114 E13.69638
G1 X99.838 Y59.538 E13.75889
G1 X101.39 Y59.088 E13.81263
G1 X103.526 Y58.541 E13.88597
G1 X105.425 Y58.123 E13.95064
G1 X107.267 Y57.777 E14.01298
G1 X108.795 Y57.535 E14.06444
G1 X110.702 Y57.29 E14.12838
G1 X112.588 Y57.107 E14.19141
G1 X112.918 Y57.081 E14.20242
G1 X114.81 Y56.967 E14.26546
G1 X116.383 Y56.918 E14.3178
G1 X118.286 Y56.913 E14.3811
G1 X120.191 Y56.967 E14.44448
G1 X122.124 Y57.084 E14.50889
G1 X123.983 Y57.255 E14.57098
G1 X125.88 Y57.489 E14.63456
G1 X126.215 Y57.537 E14.64581
G1 X128.057 Y57.834 E14.70787
G1 X129.575 Y58.123 E14.75926
G1 X131.497 Y58.547 E14.82473
G1 X131.826 Y58.626 E14.83598
G1 X133.649 Y59.099 E14.89862
G1 X135.504 Y59.643 E14.96292
G1 X137.008 Y60.133 E15.01553
G1 X138.733 Y60.749 E15.07645
G1 X140.52 Y61.45 E15.1403
G1 X142.295 Y62.213 E15.20456
G1 X142.603 Y62.352 E15.2158
G1 X144.351 Y63.181 E15.28014
G1 X145.965 Y64.009 E15.34048
G1 X147.391 Y64.793 E15.3946
G1 X149.331 Y65.941 E15.46958
G1 X150.865 Y66.921 E15.53012
G1 X152.467 Y68.014 E15.59462
G1 X153.73 Y68.931 E15.64653
G1 X155.517 Y70.317 E15.72175
G1 X156.951 Y71.51 E15.78379
G1 X158.44 Y72.83 E15.84998
G1 X159.78 Y74.096 E15.91129
G1 X161.16 Y75.486 E15.97644
G1 X162.395 Y76.808 E16.03661
G1 X163.703 Y78.299 E16.10258
G1 X164.68 Y79.479 E16.15353
G1 X165.875 Y81.012 E16.21818
G1 X166.986 Y82.534 E16.28085
G1 X168.079 Y84.135 E16.34533
G1 X169.07 Y85.688 E16.4066
G1 X170.044 Y87.326 E16.46999
G1 X170.986 Y89.027 E16.53466
G1 X171.151 Y89.339 E16.5464
G1 X171.995 Y91.01 E16.60866
G1 X172.788 Y92.708 E16.67099
G1 X173.547 Y94.476 E16.73499
G1 X174.251 Y96.268 E16.79902
G1 X174.887 Y98.05 E16.86196
G1 X175.462 Y99.838 E16.92442
G1 X175.912 Y101.39 E16.97817
G1 X176.459 Y103.526 E17.05151
G1 X176.877 Y105.425 E17.11618
G1 X177.223 Y107.267 E17.17852
G1 X177.465 Y108.795 E17.22997
G1 X177.71 Y110.702 E17.29392
G1 X177.893 Y112.588 E17.35694
G1 X178.017 Y114.472 E17.41974
G1 X178.082 Y116.383 E17.48334
G1 X178.087 Y118.286 E17.54663
G1 X178.033 Y120.191 E17.61002
G1 X177.916 Y122.124 E17.67443
G1 X177.745 Y123.983 E17.73652
G1 X177.511 Y125.88 E17.80009
G1 X177.222 Y127.735 E17.86253
G1 X176.877 Y129.575 E17.9248
G1 X176.809 Y129.904 E17.93597
G1 X176.374 Y131.829 E18.00161
G1 X175.986 Y133.337 E18.0534
G1 X175.357 Y135.504 E18.12845
G1 X174.867 Y137.008 E18.18106
G1 X174.251 Y138.733 E18.24198
G1 X173.55 Y140.52 E18.30583
G1 X172.787 Y142.295 E18.37009
G1 X171.852 Y144.284 E18.44319
G1 X170.992 Y145.963 E18.50593
G1 X170.041 Y147.683 E18.5713
G1 X169.233 Y149.048 E18.62406
G1 X168.255 Y150.597 E18.68499
G1 X167.18 Y152.19 E18.74891
G1 X166.069 Y153.73 E18.81207
G1 X164.683 Y155.517 E18.88728
G1 X163.49 Y156.951 E18.94933
G1 X162.17 Y158.44 E19.01551
G1 X160.904 Y159.78 E19.07682
G1 X159.514 Y161.16 E19.14197
G1 X158.192 Y162.395 E19.20214
G1 X156.701 Y163.703 E19.26811
G1 X155.521 Y164.68 E19.31906
G1 X153.988 Y165.875 E19.38371
G1 X152.466 Y166.986 E19.44639
G1 X150.865 Y168.079 E19.51086
G1 X149.312 Y169.07 E19.57214
G1 X147.674 Y170.044 E19.63552
G1 X145.973 Y170.986 E19.70019
G1 X145.661 Y171.151 E19.71193
G1 X143.99 Y171.995 E19.77419
G1 X142.292 Y172.788 E19.83653
G1 X140.524 Y173.547 E19.90052
G1 X138.729 Y174.252 E19.96466
G1 X136.951 Y174.886 E20.02744
G1 X135.162 Y175.462 E20.08995
G1 X133.61 Y175.912 E20.1437
G1 X131.474 Y176.459 E20.21704
G1 X129.575 Y176.877 E20.28171
G1 X127.733 Y177.223 E20.34405
G1 X126.205 Y177.465 E20.3955
G1 X124.298 Y177.71 E20.45945
G1 X122.412 Y177.893 E20.52247
G1 X122.082 Y177.919 E20.53348
G1 X120.19 Y178.033 E20.59653
G1 X118.617 Y178.082 E20.64887
G1 X116.714 Y178.087 E20.71216
G1 X114.809 Y178.033 E20.77555
G1 X112.876 Y177.916 E20.83996
G1 X111.017 Y177.745 E20.90205
G1 X109.12 Y177.511 E20.96562
G1 X107.265 Y177.222 E21.02806
G1 X105.425 Y176.877 E21.09033
G1 X105.096 Y176.809 E21.1015
G1 X103.171 Y176.374 E21.16714
G1 X101.663 Y175.986 E21.21893
G1 X99.496 Y175.357 E21.29398
G1 X97.992 Y174.867 E21.34659
G1 X96.267 Y174.251 E21.40752
G1 X94.48 Y173.55 E21.47136
G1 X92.705 Y172.787 E21.53562
G1 X90.716 Y171.852 E21.60872
G1 X89.035 Y170.991 E21.67154
G1 X87.609 Y170.207 E21.72566
G1 X85.669 Y169.059 E21.80064
G1 X84.135 Y168.079 E21.86118
G1 X82.533 Y166.986 E21.92569
G1 X81.27 Y166.069 E21.9776
G1 X79.745 Y164.893 E22.04165
G1 X78.301 Y163.705 E22.10384
G1 X76.809 Y162.397 E22.16984
G1 X76.56 Y162.17 E22.18104
G1 X75.22 Y160.904 E22.24236
G1 X73.84 Y159.514 E22.3075
G1 X72.605 Y158.192 E22.36767
G1 X71.297 Y156.701 E22.43364
G1 X70.32 Y155.521 E22.4846
G1 X68.923 Y153.719 E22.56043
G1 X67.821 Y152.192 E22.62307
G1 X66.921 Y150.866 E22.67637
G1 X65.755 Y149.027 E22.74879
G1 X64.956 Y147.675 E22.80102
G1 X64.012 Y145.97 E22.86584
G1 X63.849 Y145.661 E22.87746
G1 X63.005 Y143.99 E22.93973
G1 X62.212 Y142.292 E23.00206
G1 X61.453 Y140.524 E23.06605
G1 X60.748 Y138.729 E23.1302
G1 X60.114 Y136.951 E23.19298
G1 X59.538 Y135.162 E23.25549
G1 X59.088 Y133.61 E23.30924
G1 X58.541 Y131.474 E23.38257
G1 X58.123 Y129.575 E23.44724
G1 X57.777 Y127.733 E23.50958
G1 X57.535 Y126.205 E23.56104
G1 X57.29 Y124.298 E23.62498
G1 X57.107 Y122.412 E23.68801
G1 X57.081 Y122.082 E23.69902
G1 X56.967 Y120.19 E23.76206
G1 X56.918 Y118.617 E23.8144
G1 X56.913 Y116.714 E23.8777
G1 X56.967 Y114.809 E23.94108
G1 X57.084 Y112.876 E24.00549
G1 X57.255 Y111.017 E24.06758
G1 X57.489 Y109.12 E24.13116
G1 X57.778 Y107.265 E24.1936
G1 X58.123 Y105.425 E24.25586
G1 X58.191 Y105.096 E24.26704
G1 X58.626 Y103.171 E24.33268
G1 X59.014 Y101.663 E24.38447
G1 X59.643 Y99.496 E24.45952
G1 X60.133 Y97.992 E24.51213
G1 X60.749 Y96.267 E24.57305
G1 X61.45 Y94.48 E24.6369
G1 X62.213 Y92.705 E24.70116
G1 X63.148 Y90.716 E24.77426
G1 X64.008 Y89.037 E24.837
G1 X64.959 Y87.317 E24.90237
G1 X65.767 Y85.952 E24.95513
G1 X66.745 Y84.403 E25.01606
G1 X67.82 Y82.81 E25.07997
G1 X68.931 Y81.27 E25.14313
G1 X70.317 Y79.483 E25.21835
G1 X71.51 Y78.049 E25.28039
G1 X72.83 Y76.56 E25.34658
G1 X74.096 Y75.22 E25.40789
G0 F6000 X74.149 Y75.74
G1 F1200 X75.544 Y74.341 E25.4736
G1 X76.831 Y73.125 E25.53249
G1 X78.554 Y71.605 E25.60891
G1 X79.99 Y70.423 E25.67077
G1 X81.514 Y69.248 E25.73478
G1 X83.034 Y68.151 E25.79712
G1 X84.359 Y67.252 E25.85038
G1 X85.902 Y66.268 E25.91125
G1 X86.178 Y66.099 E25.92201
G1 X87.795 Y65.149 E25.98439
G1 X89.52 Y64.205 E26.04979
G1 X90.901 Y63.503 E26.10132
G1 X92.572 Y62.712 E26.16281
G1 X94.623 Y61.825 E26.23713
G1 X96.406 Y61.124 E26.30085
G1 X98.173 Y60.494 E26.36324
G1 X99.95 Y59.922 E26.42533
G1 X101.502 Y59.472 E26.47908
G1 X103.301 Y59.006 E26.54089
G1 X105.499 Y58.516 E26.61579
G1 X107.017 Y58.227 E26.66719
G1 X109.179 Y57.885 E26.73999
G1 X111.068 Y57.652 E26.80329
G1 X112.943 Y57.48 E26.86592
G1 X114.499 Y57.382 E26.91777
G1 X116.395 Y57.318 E26.98087
G1 X118.286 Y57.313 E27.04377
G1 X120.507 Y57.382 E27.11767
G1 X122.098 Y57.483 E27.1707
G1 X123.945 Y57.653 E27.23239
G1 X125.83 Y57.886 E27.29556
G1 X127.983 Y58.227 E27.36806
G1 X129.501 Y58.516 E27.41946
G1 X131.41 Y58.937 E27.48448
G1 X131.727 Y59.013 E27.49532
G1 X133.538 Y59.483 E27.55755
G1 X135.064 Y59.926 E27.6104
G1 X136.884 Y60.514 E27.67401
G1 X138.897 Y61.238 E27.74516
G1 X140.373 Y61.822 E27.79796
G1 X142.136 Y62.58 E27.86179
G1 X143.886 Y63.399 E27.92605
G1 X145.772 Y64.36 E27.99645
G1 X147.478 Y65.303 E28.06129
G1 X148.842 Y66.11 E28.114
G1 X150.641 Y67.252 E28.18487
G1 X151.966 Y68.151 E28.23813
G1 X153.495 Y69.255 E28.30085
G1 X155.262 Y70.625 E28.37522
G1 X156.687 Y71.81 E28.43686
G1 X157.927 Y72.903 E28.49184
G1 X159.26 Y74.149 E28.55253
G1 X160.659 Y75.544 E28.61824
G1 X161.875 Y76.831 E28.67713
G1 X163.395 Y78.554 E28.75355
G1 X164.577 Y79.99 E28.81541
G1 X165.752 Y81.514 E28.87941
G1 X166.849 Y83.034 E28.94176
